X:1
%
T:Just in the height of her bloom
M:9/8
L:1/8
R:Air
S:Joyce - Old Irish Folk Music and Songs  (1909)
Z:AK/Fiddler's Companion
K:Dmix
d/c/|BAG GEG GEG|BAG EFG A2c|BAG GAG GAB|
cBA BGE D2||c|Bcd ded dBG|Bcd edB A2c|
Bcd ded dBG|cBA BGE D2||d/c/|BAG GEG GEG|
BAG EFG A2c|BAG GEG GAB|cBA BGE D2||

